X:67
T:Saturday night and Sunday morn
M:6/8
L:1/8
R:Jig
P:(AABB)3
K:Cmaj clef=treble
P:A
e [|"C"edc f2G|"Gm"ddd d2f|"C"edc f2G|1"F"ccc c2e :|2 "F"ccc c2b |]
P:B
[|"F"a>gf "C"edc|"Gm"d'd'd' d'2b|"Gm"a>gf "C"edc |1 "F"c'c'c' c'2b |2 "F"c'c'c' c'2e
%Warning : No repeat expected, found :|
:|

